X:62
T:Thomond Bridge
Z: id:dc-hornpipe-55
M:C|
L:1/8
K:F Major
(3cde|f2cA BABc|AFGE F2fg|afba gafg|ecc=B c2cA|!
Bdgb Acfa|Gceg FAcf|efga bgeg|f2fe f2:|!
cB|Afcf Afcf|agfe dcBA|Bgdg Bgdg|bagf edcB|!
Afcf Afcf|agfe dcBA|(3Bcd cB AFGE|F2FE F2:|!

